polaris-icons/icons/newicons/AnalyticsLineMinor.svg

<svg width="20" height="20" viewBox="0 0 20 20" fill="none" xmlns="http://www.w3.org/2000/svg">
<path fill-rule="evenodd" clip-rule="evenodd" d="M8.44697 4.5C8.00114 4.5 7.61903 4.81867 7.53896 5.25725L6.53735 10.7439C6.2988 12.0506 5.16035 13 3.83206 13H3.75C3.33579 13 3 12.6642 3 12.25C3 11.8358 3.33579 11.5 3.75 11.5H3.83206C4.43583 11.5 4.95331 11.0684 5.06174 10.4745L6.06335 4.98787C6.27353 3.83654 7.27661 3 8.44697 3C9.71534 3 10.7691 3.97817 10.8633 5.24304L11.5792 14.8548C11.6063 15.2186 11.9094 15.5 12.2742 15.5C12.6149 15.5 12.9057 15.2537 12.9617 14.9176L13.4817 11.7979C13.7027 10.4719 14.8499 9.5 16.1943 9.5H16.25C16.6642 9.5 17 9.83579 17 10.25C17 10.6642 16.6642 11 16.25 11H16.1943C15.5832 11 15.0617 11.4418 14.9613 12.0445L14.4413 15.1642C14.2648 16.2236 13.3482 17 12.2742 17C11.1242 17 10.1688 16.1131 10.0833 14.9662L9.36743 5.35445C9.33154 4.87262 8.93013 4.5 8.44697 4.5Z" fill="black"/>
</svg>

<svg viewBox="0 0 20 20" fill="none" xmlns="http://www.w3.org/2000/svg"><path fill-rule="evenodd" clip-rule="evenodd" d="M8.447 4.5a.923.923 0 0 0-.908.757l-1.002 5.487a2.75 2.75 0 0 1-2.705 2.256h-.082a.75.75 0 0 1 0-1.5h.082a1.25 1.25 0 0 0 1.23-1.025l1.001-5.487a2.423 2.423 0 0 1 4.8.255l.716 9.612a.697.697 0 0 0 1.383.063l.52-3.12a2.75 2.75 0 0 1 2.712-2.298h.056a.75.75 0 0 1 0 1.5h-.056a1.25 1.25 0 0 0-1.233 1.044l-.52 3.12a2.197 2.197 0 0 1-4.358-.198l-.716-9.612a.923.923 0 0 0-.92-.854Z" fill="#5C5F62"/></svg>
